assets/icons/modem.svg

<?xml version="1.0" encoding="UTF-8" standalone="no"?>
<svg
   viewBox="0 0 24 24"
   version="1.1"
   id="svg10"
   sodipodi:docname="modem.svg"
   inkscape:version="1.2 (1:1.2.1+202207142221+cd75a1ee6d)"
   width="24"
   height="24"
   xmlns:inkscape="http://www.inkscape.org/namespaces/inkscape"
   xmlns:sodipodi="http://sodipodi.sourceforge.net/DTD/sodipodi-0.dtd"
   xmlns="http://www.w3.org/2000/svg"
   xmlns:svg="http://www.w3.org/2000/svg"
   xmlns:rdf="http://www.w3.org/1999/02/22-rdf-syntax-ns#"
   xmlns:cc="http://creativecommons.org/ns#"
   xmlns:dc="http://purl.org/dc/elements/1.1/">
  <metadata
     id="metadata16">
    <rdf:RDF>
      <cc:Work
         rdf:about="">
        <dc:format>image/svg+xml</dc:format>
        <dc:type
           rdf:resource="http://purl.org/dc/dcmitype/StillImage" />
      </cc:Work>
    </rdf:RDF>
  </metadata>
  <defs
     id="defs14" />
  <sodipodi:namedview
     pagecolor="#ffffff"
     bordercolor="#666666"
     borderopacity="1"
     objecttolerance="10"
     gridtolerance="10"
     guidetolerance="10"
     inkscape:pageopacity="0"
     inkscape:pageshadow="2"
     inkscape:window-width="1920"
     inkscape:window-height="1016"
     id="namedview12"
     showgrid="false"
     inkscape:zoom="22.627417"
     inkscape:cx="13.50132"
     inkscape:cy="13.50132"
     inkscape:window-x="0"
     inkscape:window-y="0"
     inkscape:window-maximized="1"
     inkscape:current-layer="svg10"
     inkscape:pagecheckerboard="0"
     inkscape:showpageshadow="2"
     inkscape:deskcolor="#d1d1d1">
    <inkscape:grid
       type="xygrid"
       id="grid841" />
    <inkscape:grid
       type="xygrid"
       id="grid829"
       dotted="true"
       spacingx="0.5"
       spacingy="0.5"
       empspacing="10" />
  </sodipodi:namedview>
  <path
     id="rect651"
     style="fill:#808080;fill-rule:evenodd;stroke-width:2;stroke-linejoin:round"
     d="M 9.3808594 2.8945312 A 8.5 8.5 0 0 0 8 7.5 A 8.5 8.5 0 0 0 9.3808594 12.105469 L 10.207031 11.572266 A 7.5 7.5 0 0 1 9 7.5 A 7.5 7.5 0 0 1 10.207031 3.4277344 L 9.3808594 2.8945312 z M 11.900391 4.5234375 A 5.5 5.5 0 0 0 11 7.5 A 5.5 5.5 0 0 0 11.900391 10.476562 L 12.730469 9.9394531 A 4.5 4.5 0 0 1 12 7.5 A 4.5 4.5 0 0 1 12.730469 5.0605469 L 11.900391 4.5234375 z M 16.5 5.5 A 2 2 0 0 0 14.5 7.5 A 2 2 0 0 0 16 9.4335938 L 16 13.001953 L 6.5 13.001953 C 6.2500005 13.001953 6.0127578 13.000053 5.7871094 13.001953 C 5.1101658 13.007553 4.5365046 13.050103 4.0273438 13.304688 C 3.6879014 13.474407 3.3973374 13.767123 3.2304688 14.142578 C 3.063599 14.518035 3 14.96029 3 15.501953 L 3 17 L 3 18.498047 C 3 19.03971 3.0635991 19.481965 3.2304688 19.857422 C 3.3973374 20.232876 3.6879014 20.525593 4.0273438 20.695312 C 4.5365046 20.949897 5.1101658 20.992447 5.7871094 20.998047 C 6.0127578 20.999947 6.2500005 20.998047 6.5 20.998047 L 17.5 20.998047 C 17.75 20.998047 17.987242 21.0019 18.212891 21 C 18.889834 20.9944 19.463495 20.94989 19.972656 20.695312 C 20.312099 20.525593 20.602661 20.232876 20.769531 19.857422 C 20.9364 19.481965 21 19.03971 21 18.498047 L 21 17 L 21 15.501953 C 21 14.96029 20.9364 14.518035 20.769531 14.142578 C 20.602661 13.767123 20.312099 13.474407 19.972656 13.304688 C 19.463495 13.050107 18.889834 13.005587 18.212891 13 C 17.987242 12.9981 17.75 13.001953 17.5 13.001953 L 17 13.001953 L 17 9.4335938 A 2 2 0 0 0 18.5 7.5 A 2 2 0 0 0 16.5 5.5 z M 6.5 14.001953 L 17.5 14.001953 C 18.499996 14.001953 19.20623 14.038663 19.527344 14.199219 C 19.687901 14.279499 19.772339 14.361786 19.855469 14.548828 C 19.938599 14.73587 20 15.043623 20 15.501953 L 20 17 L 20 18.498047 C 20 18.956377 19.9386 19.26413 19.855469 19.451172 C 19.772339 19.638214 19.687901 19.720501 19.527344 19.800781 C 19.20623 19.961337 18.499996 19.998047 17.5 19.998047 L 6.5 19.998047 C 5.500004 19.998047 4.7937696 19.961337 4.4726562 19.800781 C 4.3120996 19.720501 4.2276612 19.638214 4.1445312 19.451172 C 4.0614003 19.26413 4 18.956377 4 18.498047 L 4 17 L 4 15.501953 C 4 15.043623 4.0614001 14.73587 4.1445312 14.548828 C 4.2276612 14.361786 4.3120996 14.279497 4.4726562 14.199219 C 4.7937696 14.038662 5.500004 14.001953 6.5 14.001953 z M 15 17 L 15 18 L 18 18 L 18 17 L 15 17 z " />
</svg>

<svg width="24" height="24" xmlns="http://www.w3.org/2000/svg"><path style="fill:gray;stroke-width:2;stroke-linejoin:round" d="M9.38 2.895A8.5 8.5 0 0 0 8 7.5a8.5 8.5 0 0 0 1.38 4.605l.827-.533A7.5 7.5 0 0 1 9 7.5a7.5 7.5 0 0 1 1.207-4.072l-.826-.533zm2.52 1.628A5.5 5.5 0 0 0 11 7.5a5.5 5.5 0 0 0 .9 2.977l.83-.538A4.5 4.5 0 0 1 12 7.5a4.5 4.5 0 0 1 .73-2.44l-.83-.537zm4.6.977a2 2 0 0 0-2 2A2 2 0 0 0 16 9.434v3.568H6.5c-.25 0-.487-.002-.713 0-.677.006-1.25.048-1.76.303-.34.17-.63.462-.797.838-.166.375-.23.817-.23 1.359v2.996c0 .542.064.984.23 1.36.167.375.458.668.797.837.51.255 1.083.297 1.76.303.226.002.463 0 .713 0h11c.25 0 .487.004.713.002.677-.006 1.25-.05 1.76-.305.34-.17.63-.462.797-.838.166-.375.23-.817.23-1.359v-2.996c0-.542-.064-.984-.23-1.36a1.72 1.72 0 0 0-.797-.837c-.51-.255-1.083-.3-1.76-.305-.226-.002-.463.002-.713.002H17V9.434A2 2 0 0 0 18.5 7.5a2 2 0 0 0-2-2zm-10 8.502h11c1 0 1.706.037 2.027.197.16.08.245.163.328.35.084.187.145.495.145.953v2.996c0 .458-.061.766-.145.953a.615.615 0 0 1-.328.35c-.32.16-1.027.197-2.027.197h-11c-1 0-1.706-.037-2.027-.197a.615.615 0 0 1-.328-.35C4.06 19.264 4 18.956 4 18.498v-2.996c0-.458.061-.766.145-.953a.615.615 0 0 1 .328-.35c.32-.16 1.027-.197 2.027-.197zM15 17v1h3v-1h-3z"/></svg>
